X:1
T:Moll Roe
M:9/8
L:1/8
Q:80
C:Arranged by T. Tully
S:Jig
K:HP
A | \
{g}Ad{c}d{g}ded{g}cde | \
{gefe}f2A{g}def{gf}g2e | \
{g}Ad{c}d{g}ded{g}cde |
{gefe}f2A{a}gec{gde}d2 :| \
A | \
"flick"a3ged{g}cB{G}A | \
"flick"a3gef{gf}g2e |
"flick"a3ged{g}cde | \
{gefe}f2A{a}gec{gde}d2 :|
